icon/lg/eslint-old.svg

<?xml version="1.0" encoding="UTF-8" standalone="no" ?>
<svg viewBox="0 0 256 263" version="1.1" xmlns="http://www.w3.org/2000/svg" xmlns:xlink="http://www.w3.org/1999/xlink" preserveAspectRatio="xMidYMid" height="1em" width="1em">
  <g>
    <path d="M100.033785,262.105923 L0.598353254,172.570518 L28.4489774,41.6943426 L155.626242,0.353572377 L255.061673,89.8889774 L227.211049,220.765153 L100.033785,262.105923 L100.033785,262.105923 Z M51.9479416,155.925418 L111.239309,209.233254 L187.066985,184.537583 L203.712085,106.534077 L144.420717,53.1174502 L68.5930412,77.9219124 L51.9479416,155.925418 L51.9479416,155.925418 Z" fill="#3A33D1"/>
    <path d="M181.301036,223.920106 L74.3589907,223.920106 L20.8335724,131.229748 L74.3589907,38.5393891 L181.301036,38.5393891 L234.826454,131.229748 L181.301036,223.920106 L181.301036,223.920106 Z M93.1799203,191.282656 L162.480106,191.282656 L197.184595,131.229748 L162.480106,71.1768393 L93.1799203,71.1768393 L58.5842231,131.229748 L93.1799203,191.282656 L93.1799203,191.282656 Z" fill="#6464E2"/>
  </g>
</svg>

<svg width="256" height="263" xmlns="http://www.w3.org/2000/svg" preserveAspectRatio="xMidYMid"><path d="M100.034 262.106.598 172.57 28.45 41.694 155.626.354l99.436 89.535-27.851 130.876-127.177 41.34Zm-48.086-106.18 59.291 53.307 75.828-24.695 16.645-78.004-59.291-53.417-75.828 24.805-16.645 78.003Z" fill="#3A33D1"/><path d="M181.301 223.92H74.359l-53.525-92.69 53.525-92.69h106.942l53.525 92.69-53.525 92.69ZM93.18 191.283h69.3l34.705-60.053-34.705-60.053h-69.3L58.584 131.23l34.596 60.053Z" fill="#6464E2"/></svg>
